Numix/scalable/categories/event-birthday-symbolic.svg

<?xml version="1.0" encoding="UTF-8" standalone="no"?>
<!-- Created with Inkscape (http://www.inkscape.org/) -->

<svg
   xmlns:dc="http://purl.org/dc/elements/1.1/"
   xmlns:cc="http://creativecommons.org/ns#"
   xmlns:rdf="http://www.w3.org/1999/02/22-rdf-syntax-ns#"
   xmlns:svg="http://www.w3.org/2000/svg"
   xmlns="http://www.w3.org/2000/svg"
   xmlns:sodipodi="http://sodipodi.sourceforge.net/DTD/sodipodi-0.dtd"
   xmlns:inkscape="http://www.inkscape.org/namespaces/inkscape"
   version="1.1"
   width="16"
   height="16"
   id="svg2996"
   inkscape:version="0.91 r"
   sodipodi:docname="event-birthday-symbolic.svg">
  <sodipodi:namedview
     pagecolor="#ffffff"
     bordercolor="#666666"
     borderopacity="1"
     objecttolerance="10"
     gridtolerance="10"
     guidetolerance="10"
     inkscape:pageopacity="0"
     inkscape:pageshadow="2"
     inkscape:window-width="1920"
     inkscape:window-height="1056"
     id="namedview93"
     showgrid="true"
     inkscape:zoom="29.5"
     inkscape:cx="7.5164049"
     inkscape:cy="4.5551239"
     inkscape:window-x="0"
     inkscape:window-y="24"
     inkscape:window-maximized="1"
     inkscape:current-layer="svg2996">
    <inkscape:grid
       type="xygrid"
       id="grid4133" />
  </sodipodi:namedview>
  <defs
     id="defs2998" />
  <metadata
     id="metadata3001">
    <rdf:RDF>
      <cc:Work
         rdf:about="">
        <dc:format>image/svg+xml</dc:format>
        <dc:type
           rdf:resource="http://purl.org/dc/dcmitype/StillImage" />
        <dc:title />
      </cc:Work>
    </rdf:RDF>
  </metadata>
  <path
     d="M 6.0625,0.03125 C 5.7576857,0.0532685 5.4654007,0.15302441 5.21875,0.34375 4.5599182,0.8531992 4.3682997,1.8668096 4.90625,2.5625 5.1453581,2.87172 5.4661253,3.1581786 5.875,3.5 6.0794374,3.6709107 6.2810332,3.8301299 6.53125,3.96875 6.5521014,3.9803017 6.5720924,3.9884056 6.59375,4 L 1.5,4 C 1.223,4 1,4.223 1,4.5 l 0,3 C 1,7.777 1.223,8 1.5,8 L 2,8 2,15.5 C 2,15.777 2.223,16 2.5,16 l 11,0 C 13.777,16 14,15.777 14,15.5 L 14,8 14.5,8 C 14.777,8 15,7.777 15,7.5 l 0,-3 C 15,4.223 14.777,4 14.5,4 L 9.65625,4 c 0.1322863,-0.082673 0.261251,-0.1594106 0.375,-0.25 0.30631,-0.2439444 0.513326,-0.3814288 0.75,-0.6875 C 11.289643,2.4050329 11.099924,1.4951479 10.5,1.03125 10.221694,0.81604618 9.8365173,0.7400074 9.46875,0.78125 9.1009827,0.8224926 8.7269629,0.98773627 8.5,1.28125 8.3131243,1.522922 8.2244462,1.7308586 8.125,1.96875 8.1067063,1.9256606 8.080211,1.8865676 8.0625,1.84375 7.9592879,1.5942267 7.8577853,1.3623168 7.75,1.15625 7.6422147,0.95018319 7.5854697,0.81635781 7.4375,0.625 7.171428,0.28090938 6.7781812,0.07583933 6.375,0.03125 6.2742047,0.02010267 6.1641048,0.0239105 6.0625,0.03125 z m 0.125,0.9375 c 0.1713026,0.006545 0.3538315,0.1013846 0.46875,0.25 C 6.8605498,1.4829551 7.6079551,2.9832005 7.34375,3.1875 7.0795448,3.3917998 5.8917997,2.232955 5.6875,1.96875 5.4832004,1.7045448 5.5482949,1.3292996 5.8125,1.125 5.8785513,1.0739251 5.9567412,1.0202332 6.03125,1 6.0871316,0.98482509 6.1303991,0.96656825 6.1875,0.96875 z M 9.59375,1.75 C 9.6972829,1.7367617 9.7836156,1.7730859 9.875,1.84375 10.057769,1.9850782 10.110078,2.254731 9.96875,2.4375 9.8274216,2.6202689 8.995269,3.3913283 8.8125,3.25 8.629731,3.1086719 9.1711717,2.089019 9.3125,1.90625 9.3831641,1.8148655 9.4902171,1.7632383 9.59375,1.75 z M 2,5 7,5 7,7 2,7 z m 7,0 5,0 0,2 -5,0 z m -6,3 4,0 0,7 -4,0 z m 6,0 4,0 0,7 -4,0 z"
     id="rect3025"
     style="color:#000000;fill:#bebebe;fill-opacity:1;fill-rule:nonzero;stroke:none;stroke-width:1;marker:none;visibility:visible;display:inline;overflow:visible;enable-background:accumulate" />
</svg>

<!-- Created with Inkscape (http://www.inkscape.org/) -->
<svg xmlns="http://www.w3.org/2000/svg" viewBox="0 0 16 16">
 <path d="m 6.06 0.031 c -0.305 0.022 -0.597 0.122 -0.844 0.313 -0.659 0.509 -0.85 1.523 -0.313 2.219 0.239 0.309 0.56 0.596 0.969 0.938 0.204 0.171 0.406 0.33 0.656 0.469 0.021 0.012 0.041 0.02 0.063 0.031 l -5.094 0 c -0.277 0 -0.5 0.223 -0.5 0.5 l 0 3 c 0 0.277 0.223 0.5 0.5 0.5 l 0.5 0 0 7.5 c 0 0.277 0.223 0.5 0.5 0.5 l 11 0 c 0.277 0 0.5 -0.223 0.5 -0.5 l 0 -7.5 0.5 0 c 0.277 0 0.5 -0.223 0.5 -0.5 l 0 -3 c 0 -0.277 -0.223 -0.5 -0.5 -0.5 l -4.844 0 c 0.132 -0.083 0.261 -0.159 0.375 -0.25 0.306 -0.244 0.513 -0.381 0.75 -0.688 c 0.508 -0.657 0.319 -1.567 -0.281 -2.031 -0.278 -0.215 -0.663 -0.291 -1.031 -0.25 -0.368 0.041 -0.742 0.206 -0.969 0.5 -0.187 0.242 -0.276 0.45 -0.375 0.688 -0.018 -0.043 -0.045 -0.082 -0.063 -0.125 -0.103 -0.25 -0.205 -0.481 -0.313 -0.688 -0.108 -0.206 -0.165 -0.34 -0.313 -0.531 -0.266 -0.344 -0.659 -0.549 -1.063 -0.594 -0.101 -0.011 -0.211 -0.007 -0.313 0 z m 0.125 0.938 c 0.171 0.007 0.354 0.101 0.469 0.25 c 0.204 0.264 0.952 1.764 0.688 1.969 -0.264 0.204 -1.452 -0.955 -1.656 -1.219 -0.204 -0.264 -0.139 -0.639 0.125 -0.844 0.066 -0.051 0.144 -0.105 0.219 -0.125 0.056 -0.015 0.099 -0.033 0.156 -0.031 z m 3.406 0.781 c 0.104 -0.013 0.19 0.023 0.281 0.094 0.183 0.141 0.235 0.411 0.094 0.594 -0.141 0.183 -0.973 0.954 -1.156 0.813 -0.183 -0.141 0.359 -1.161 0.5 -1.344 0.071 -0.091 0.178 -0.143 0.281 -0.156 z m -7.594 3.25 5 0 0 2 -5 0 z m 7 0 5 0 0 2 -5 0 z m -6 3 4 0 0 7 -4 0 z m 6 0 4 0 0 7 -4 0 z" style="visibility:visible;fill:#bebebe;fill-opacity:1;stroke:none;display:inline;color:#000;fill-rule:nonzero"/>
</svg>
